src/symbols/av-symbol/23F9.svg

<svg id="emoji" viewBox="0 0 72 72" xmlns="http://www.w3.org/2000/svg">
  <g id="grid">
    <path fill="#b3b3b3" d="M68,4V68H4V4H68m4-4H0V72H72V0Z"/>
    <path fill="none" stroke="#00a5ff" stroke-miterlimit="10" stroke-width="0.1" d="M12.923,10.9583H59.0769A1.9231,1.9231,0,0,1,61,12.8814V59.0352a1.9231,1.9231,0,0,1-1.9231,1.9231H12.9231A1.9231,1.9231,0,0,1,11,59.0352V12.8813A1.923,1.923,0,0,1,12.923,10.9583Z"/>
    <rect x="16" y="4" rx="2.2537" width="40" height="64" fill="none" stroke="#00a5ff" stroke-miterlimit="10" stroke-width="0.1"/>
    <rect x="16" y="4" rx="2.2537" width="40" height="64" transform="translate(72) rotate(90)" fill="none" stroke="#00a5ff" stroke-miterlimit="10" stroke-width="0.1"/>
    <circle cx="36" cy="36" r="29" fill="none" stroke="#00a5ff" stroke-miterlimit="10" stroke-width="0.1"/>
  </g>
  <g id="color"/>
  <g id="hair"/>
  <g id="skin"/>
  <g id="skin-shadow"/>
  <g id="line">
    <path fill="#000000" stroke="none" d="M49.2614,18C51.8743,18,54,20.1257,54,22.7386v26.5229C54,51.8743,51.8743,54,49.2614,54H22.7386 C20.1257,54,18,51.8743,18,49.2614V22.7386C18,20.1257,20.1257,18,22.7386,18H49.2614 M49.2614,16H22.7386 C19.017,16,16,19.017,16,22.7386v26.5229C16,52.983,19.017,56,22.7386,56h26.5229C52.983,56,56,52.983,56,49.2614V22.7386 C56,19.017,52.983,16,49.2614,16L49.2614,16z"/>
  </g>
</svg>

<svg viewBox="0 0 72 72" xmlns="http://www.w3.org/2000/svg"><path fill="#b3b3b3" d="M68 4v64H4V4h64m4-4H0v72h72V0z"/><path fill="none" stroke="#00a5ff" stroke-miterlimit="10" stroke-width=".1" d="M12.923 10.958h46.154A1.923 1.923 0 0161 12.881v46.154a1.923 1.923 0 01-1.923 1.923H12.923A1.923 1.923 0 0111 59.035V12.881a1.923 1.923 0 011.923-1.923z"/><rect x="16" y="4" rx="2.254" width="40" height="64" fill="none" stroke="#00a5ff" stroke-miterlimit="10" stroke-width=".1"/><rect x="16" y="4" rx="2.254" width="40" height="64" transform="rotate(90 36 36)" fill="none" stroke="#00a5ff" stroke-miterlimit="10" stroke-width=".1"/><circle cx="36" cy="36" r="29" fill="none" stroke="#00a5ff" stroke-miterlimit="10" stroke-width=".1"/><path d="M49.261 18A4.744 4.744 0 0154 22.739v26.523A4.744 4.744 0 0149.261 54H22.74A4.744 4.744 0 0118 49.261V22.74A4.744 4.744 0 0122.739 18H49.26m0-2H22.74A6.739 6.739 0 0016 22.739v26.523A6.739 6.739 0 0022.739 56h26.523A6.739 6.739 0 0056 49.261V22.74A6.739 6.739 0 0049.261 16h0z" stroke-linecap="round" stroke-miterlimit="10" stroke-width="6" stroke="#fff" fill="none" stroke-linejoin="round"/><path d="M49.261 18A4.744 4.744 0 0154 22.739v26.523A4.744 4.744 0 0149.261 54H22.74A4.744 4.744 0 0118 49.261V22.74A4.744 4.744 0 0122.739 18H49.26m0-2H22.74A6.739 6.739 0 0016 22.739v26.523A6.739 6.739 0 0022.739 56h26.523A6.739 6.739 0 0056 49.261V22.74A6.739 6.739 0 0049.261 16z"/></svg>
